static/images/hero/rev-grid-1.svg

<svg width="183" height="2" viewBox="0 0 183 2" fill="none" xmlns="http://www.w3.org/2000/svg">
<path d="M69.299 2.15769e-05C70.4004 -0.000690222 71.4329 0.0163245 72.7369 0.0378644C72.7376 0.0378644 72.7383 0.0378644 72.739 0.0378644C72.9253 0.0409417 73.1173 0.0441647 73.3157 0.0473862C74.9133 0.0733285 76.9891 0.103774 80.1191 0.121241C83.5777 0.140544 86.3235 0.210431 88.0002 0.277495C88.3129 0.290003 88.6366 0.296876 89.4531 0.303131C89.9884 0.307233 90.7124 0.310936 91.757 0.316315C92.3127 0.319176 92.9593 0.322468 93.7163 0.326569C96.2223 0.340142 100.15 0.335916 103.769 0.33194C105.965 0.329527 108.048 0.327221 109.631 0.329132C111.945 0.331929 114.178 0.344474 116.605 0.358186C118.828 0.370743 121.214 0.384296 123.976 0.392C126.094 0.397914 128.152 0.448688 130.244 0.505407C130.51 0.512625 130.778 0.519922 131.045 0.527258C132.891 0.577865 134.778 0.629676 136.818 0.659342C140.455 0.712219 143.358 0.69037 146.571 0.666178C147.828 0.656716 149.133 0.64688 150.547 0.641031C152.785 0.631781 156.002 0.633649 159.232 0.63627C159.507 0.636493 159.782 0.636652 160.057 0.63688C160.059 0.63688 160.06 0.63688 160.061 0.63688C163.018 0.639342 165.92 0.641758 168.049 0.636392C171.432 0.627865 172.705 0.607715 173.766 0.590859C174.165 0.584522 174.535 0.578605 174.975 0.574012C176.561 0.557475 178.956 0.560546 181.383 0.563636C181.393 0.563636 181.402 0.563636 181.411 0.563636C181.814 0.564149 182.139 0.620621 182.137 0.689738C182.135 0.758862 181.807 0.814522 181.404 0.814009C180.118 0.812373 178.864 0.810789 177.74 0.811934C177.682 0.871324 177.38 0.916281 177.017 0.915819C176.11 0.914675 173.33 0.959419 168.979 1.03252C169.277 1.04335 169.527 1.05388 169.745 1.06389C170.002 1.07565 170.199 1.08576 170.368 1.09441C170.72 1.11246 170.955 1.12437 171.371 1.13311C172.335 1.14305 173.851 1.14512 175.446 1.14715C175.848 1.14768 176.173 1.20404 176.172 1.27313C176.17 1.34224 175.841 1.39789 175.439 1.3974C175.431 1.3974 175.423 1.3974 175.415 1.3974C173.836 1.39539 172.271 1.39335 171.264 1.38275C171.008 1.38005 170.787 1.37686 170.622 1.37396C170.489 1.37164 170.324 1.36849 170.232 1.36444C170.22 1.3639 170.196 1.36281 170.169 1.36114C170.168 1.3611 170.168 1.36106 170.167 1.36102C170.152 1.3601 170.072 1.35544 169.988 1.34527C169.971 1.34322 169.934 1.33864 169.891 1.33124C169.88 1.33067 169.868 1.3301 169.857 1.32953C169.702 1.32162 169.544 1.31356 169.373 1.30572C168.705 1.27513 167.646 1.23657 165.442 1.19573C163.414 1.15818 159.987 1.14134 155.71 1.14105C155.999 1.14622 156.289 1.15124 156.578 1.15606C157.306 1.16817 158.038 1.17922 158.77 1.18975C159.05 1.19378 159.327 1.19772 159.608 1.20159C160.062 1.20786 160.517 1.21402 160.971 1.22003C161.279 1.22409 161.587 1.22809 161.894 1.23211C161.895 1.23211 161.896 1.23211 161.896 1.23211C162.323 1.23769 162.751 1.24331 163.182 1.24908C163.333 1.25123 163.482 1.25329 163.63 1.25531C164.22 1.26332 164.799 1.2711 165.465 1.28619C165.546 1.28869 165.635 1.29192 165.7 1.29461C165.771 1.29745 165.839 1.30034 165.903 1.30328C165.96 1.30588 166.014 1.30852 166.066 1.31097C166.073 1.3113 166.08 1.31162 166.087 1.31195C166.145 1.3147 166.2 1.31724 166.253 1.31964C166.307 1.32204 166.358 1.32435 166.408 1.32635C166.409 1.32635 166.409 1.32635 166.41 1.32635C166.462 1.32841 166.502 1.32995 166.558 1.33172C166.629 1.33394 166.689 1.33565 166.762 1.33734C166.833 1.33898 166.906 1.34045 166.981 1.34173C167.055 1.34301 167.131 1.34413 167.208 1.34515C167.285 1.34617 167.363 1.34712 167.442 1.34796C167.521 1.3488 167.601 1.34954 167.681 1.35028C167.762 1.35102 167.843 1.35177 167.924 1.35248C168.112 1.35413 168.292 1.368 168.425 1.39154C168.557 1.41509 168.63 1.44623 168.63 1.47846C168.629 1.51069 168.553 1.54167 168.42 1.56489C168.286 1.58809 168.105 1.60155 167.917 1.60273C167.866 1.60304 167.815 1.6034 167.763 1.6037C167.733 1.60389 167.702 1.60402 167.671 1.60419C167.588 1.60466 167.504 1.60518 167.42 1.60554C167.336 1.60589 167.251 1.60612 167.165 1.60627C167.079 1.60641 166.992 1.60646 166.903 1.60627C166.815 1.60607 166.724 1.60566 166.633 1.60493C166.543 1.60423 166.441 1.60302 166.35 1.60151C166.283 1.60044 166.201 1.59863 166.132 1.59699C166.061 1.59528 165.99 1.59337 165.923 1.59138C165.855 1.58938 165.789 1.58726 165.726 1.58527C165.719 1.58507 165.713 1.58486 165.706 1.58466C165.65 1.5829 165.597 1.58118 165.546 1.57966C165.489 1.57795 165.436 1.5765 165.385 1.57526C165.329 1.57387 165.295 1.57332 165.253 1.5727C164.7 1.56867 164.017 1.5695 163.365 1.57026C163.283 1.57035 163.202 1.57042 163.121 1.5705C162.693 1.57109 162.266 1.57183 161.839 1.57258C161.529 1.57312 161.219 1.57368 160.908 1.57416C160.45 1.57488 159.991 1.57545 159.533 1.57587C159.248 1.57612 158.968 1.57628 158.684 1.57636C157.942 1.5766 157.198 1.57626 156.453 1.57477C155.709 1.57328 154.96 1.57067 154.211 1.56623C153.465 1.5618 152.689 1.55518 151.94 1.54511C151.39 1.53759 150.826 1.52447 150.304 1.51093C150.023 1.50364 149.748 1.49624 149.477 1.48883C149.477 1.48879 149.476 1.48875 149.475 1.48871C149.237 1.48221 149.002 1.47578 148.769 1.46967C148.27 1.4565 147.779 1.44477 147.289 1.43488C146.799 1.42498 146.311 1.41691 145.82 1.41071C145.332 1.40457 144.837 1.40013 144.346 1.3974C143.852 1.39465 143.368 1.39353 142.859 1.39362C142.189 1.39386 141.525 1.39609 140.842 1.39874C140.165 1.40145 139.482 1.40484 138.798 1.40826C138.558 1.40947 138.319 1.41058 138.079 1.4118C138.078 1.4118 138.077 1.4118 138.076 1.4118C137.632 1.41406 137.187 1.41634 136.741 1.41852C136.053 1.42188 135.364 1.42508 134.671 1.42767C133.979 1.43026 133.283 1.43228 132.583 1.43305C131.883 1.43374 131.164 1.43332 130.441 1.42926C129.797 1.42575 129.148 1.42108 128.513 1.41644C128.345 1.41522 128.177 1.414 128.01 1.41278C127.214 1.40707 126.444 1.40252 125.682 1.40167C124.921 1.40073 124.16 1.40331 123.393 1.40875C122.627 1.41417 121.852 1.42228 121.071 1.43207C120.287 1.4419 119.512 1.45323 118.722 1.46564C117.938 1.478 117.15 1.49127 116.353 1.50531C115.91 1.51309 115.438 1.52023 114.992 1.52631C114.543 1.53245 114.096 1.53787 113.654 1.54291C113.475 1.54496 113.297 1.54691 113.12 1.54889C112.862 1.55178 112.606 1.5546 112.354 1.55756C111.929 1.56255 111.515 1.56789 111.112 1.57416C110.709 1.58043 110.319 1.58772 109.941 1.59662C109.551 1.60588 109.229 1.61528 108.843 1.62873C107.906 1.65466 107.324 1.66262 106.679 1.67158C106.551 1.67334 106.421 1.67522 106.286 1.67719C105.512 1.68724 104.738 1.69473 103.974 1.70039C103.203 1.70606 102.445 1.70988 101.676 1.71211C100.915 1.71432 100.148 1.71485 99.3845 1.71394C98.6221 1.71303 97.861 1.71064 97.0979 1.70673C96.3354 1.70285 95.5572 1.69732 94.81 1.69062C94.3781 1.68676 93.9194 1.68162 93.4933 1.67634C93.186 1.67254 92.8829 1.66855 92.5859 1.66462C92.4646 1.66302 92.344 1.66142 92.2246 1.65986C91.8129 1.65448 91.4126 1.64949 91.0261 1.6457C90.6394 1.64189 90.2652 1.63922 89.8991 1.63825C89.5324 1.63727 89.1735 1.638 88.8145 1.64045C88.4424 1.64308 88.1334 1.64659 87.7383 1.65302C87.481 1.65727 87.2289 1.66155 86.9775 1.66584C86.6012 1.67226 86.2276 1.67881 85.8512 1.68562C85.4753 1.69241 85.1042 1.69936 84.7312 1.70661C84.6113 1.70895 84.4846 1.71141 84.3643 1.71382C83.9927 1.72125 83.6253 1.72891 83.2582 1.73701C82.8919 1.7451 82.5289 1.75355 82.1674 1.76252C81.8044 1.77153 81.4475 1.78092 81.0835 1.79109C80.4649 1.80842 79.8727 1.81646 79.3541 1.82185C78.8294 1.82718 78.339 1.83013 77.8617 1.83296C77.7723 1.83349 77.6829 1.83402 77.5935 1.83455C77.2085 1.83676 76.8299 1.83885 76.4568 1.84138C75.9971 1.84449 75.5458 1.84819 75.0929 1.85261C74.6441 1.85698 74.1907 1.8621 73.7443 1.86812C73.2937 1.87421 72.8628 1.88079 72.3985 1.88887C71.9393 1.8968 71.4729 1.90715 70.9617 1.91841C70.4551 1.92959 69.9235 1.94108 69.3852 1.95113C68.8474 1.96121 68.3011 1.96991 67.7587 1.97676C67.2151 1.98365 66.6699 1.98886 66.1321 1.99251C65.5915 1.99619 65.0541 1.99835 64.5195 1.99935C63.9861 2.00035 63.4351 2.00018 62.9194 1.99898C62.0843 1.99705 61.253 1.99431 60.4202 1.99129C59.592 1.98825 58.7612 1.98486 57.9321 1.98128C57.1045 1.97769 56.2761 1.97395 55.4489 1.97005C54.6214 1.96614 53.794 1.96213 52.9678 1.95808C52.785 1.95719 52.6023 1.95629 52.4196 1.9554C51.7762 1.95224 51.1328 1.94908 50.4922 1.946C50.4878 1.94596 50.4834 1.94592 50.479 1.94588C49.6544 1.94196 48.8448 1.93814 48.0271 1.93489C47.7269 1.93373 47.4385 1.93263 47.1454 1.93172C46.8519 1.93081 46.564 1.93007 46.2734 1.92952C45.9824 1.92898 45.6932 1.92867 45.4084 1.92866C45.1204 1.92868 44.8398 1.92896 44.5565 1.92976C44.2969 1.93047 44.0391 1.93174 43.7575 1.93306C43.7318 1.93318 43.7061 1.9333 43.6804 1.93343C43.3722 1.93488 43.0217 1.9358 42.6959 1.93513C41.8329 1.93316 40.9918 1.93223 40.1355 1.93233C39.2788 1.93242 38.424 1.9335 37.562 1.93501C37.2254 1.9356 36.8872 1.93632 36.549 1.93697C36.0227 1.93797 35.4946 1.93899 34.9648 1.93977C34.0932 1.94108 33.2197 1.94167 32.3406 1.94087C31.4648 1.94007 30.5834 1.93782 29.7059 1.93391C28.8291 1.93003 27.9447 1.92452 27.0719 1.91756C26.0994 1.90976 25.1326 1.90115 24.1614 1.89216C23.1918 1.88317 22.2216 1.87375 21.2558 1.86409C20.2864 1.85441 19.3194 1.84448 18.3522 1.8343C17.3844 1.82412 16.4172 1.8137 15.4493 1.80305C14.8701 1.79668 14.291 1.79019 13.7116 1.78364C13.4051 1.78952 13.1112 1.79527 12.8285 1.80073C10.7397 1.84107 9.22937 1.87017 7.23681 1.89021C7.04598 1.89325 6.89071 1.89757 6.70181 1.90279C6.66577 1.90378 6.62754 1.90478 6.58856 1.90584C6.34169 1.91255 6.05818 1.91958 5.66378 1.92403C4.87701 1.93289 3.67105 1.93096 2.11267 1.87251C1.71901 1.85774 1.46851 1.79109 1.55335 1.72358C1.613 1.67623 1.82208 1.64104 2.07723 1.62934C1.60583 1.62131 1.13571 1.61291 0.66679 1.60456C0.479622 1.60122 0.303906 1.58568 0.179041 1.56098C0.0542485 1.53627 -0.00960613 1.50453 0.00117276 1.47235C0.0119552 1.44017 0.096902 1.40998 0.237404 1.388C0.377857 1.36605 0.562141 1.35416 0.750166 1.35467C1.24896 1.35611 1.74608 1.35756 2.24329 1.35858C2.74092 1.35962 3.23619 1.36022 3.73294 1.36053C4.22954 1.36085 4.72598 1.36081 5.22398 1.36053C5.72003 1.36024 6.21707 1.35978 6.71501 1.35907C7.21612 1.35837 7.70777 1.3574 8.20744 1.35638C8.50681 1.35576 8.80979 1.35515 9.10721 1.35443C9.21806 1.35418 9.32623 1.35384 9.43446 1.35358C9.52292 1.35336 9.61182 1.35318 9.70334 1.35297C10.6661 1.35051 11.6381 1.34777 12.6014 1.34479C13.5692 1.34182 14.536 1.33868 15.5028 1.33539C16.4702 1.33209 17.4367 1.32858 18.4036 1.32501C19.3701 1.32144 20.336 1.31775 21.3037 1.3139C22.2679 1.31004 23.236 1.30609 24.2017 1.30182C24.9487 1.29852 25.6894 1.29497 26.4313 1.2912C26.7234 1.28474 27.0124 1.27864 27.2977 1.27276C28.1281 1.25566 28.9597 1.23322 29.7789 1.21099C28.3209 1.22205 27.1496 1.23931 26.0346 1.25579C25.8851 1.258 25.7366 1.26022 25.5885 1.26239C24.0772 1.28447 22.6172 1.30316 20.6534 1.29901C15.0682 1.2872 11.8297 1.27859 9.81173 1.26251C7.79414 1.24643 6.92724 1.2226 6.11818 1.17523C4.97495 1.10828 2.76845 1.07019 1.65966 1.06878C1.25688 1.06826 0.931766 1.01178 0.933593 0.942675C0.935538 0.873551 1.26375 0.817891 1.66661 0.818404C2.83739 0.819897 5.22505 0.858604 6.58578 0.93828C7.19185 0.973773 7.88879 0.99667 9.87565 1.0125C11.8627 1.02833 15.0713 1.03681 20.6673 1.04864C22.5604 1.05264 23.9654 1.03484 25.4607 1.01299C25.6073 1.01085 25.755 1.0086 25.904 1.0064C25.9049 1.0064 25.9058 1.0064 25.9067 1.0064C27.2803 0.986088 28.7758 0.963949 30.7926 0.95415C35.4409 0.931565 41.6938 0.887782 43.1781 0.863083C43.4694 0.858236 43.7509 0.852792 44.0479 0.847091C45.188 0.82521 46.5644 0.79882 49.6661 0.781294C50.3445 0.77746 51.1391 0.775234 52.0062 0.774213C53.3074 0.740526 54.5707 0.709275 55.6692 0.690715C56.6172 0.674698 57.4915 0.645234 58.3386 0.612954C58.5824 0.60366 58.8279 0.593942 59.073 0.584267C59.664 0.56093 60.2553 0.537606 60.8315 0.519567C61.2908 0.505188 61.7718 0.487909 62.2802 0.469639C64.132 0.403087 66.351 0.323341 69.2427 0.322296C72.3081 0.32119 74.9326 0.335585 77.1961 0.349641C75.5338 0.33338 74.2506 0.313897 73.1816 0.296539C72.9799 0.293264 72.7867 0.290084 72.6007 0.287017C71.2869 0.265357 70.3317 0.249611 69.3081 0.250273C64.4185 0.253436 62.5846 0.274657 60.5154 0.335968C59.9706 0.352111 59.3696 0.373616 58.7221 0.396761C57.428 0.44302 55.9478 0.49591 54.3574 0.526159C52.8761 0.554331 51.2193 0.595919 49.4639 0.639932C49.4632 0.639932 49.4625 0.639932 49.4618 0.639932C49.1188 0.648533 48.7717 0.657225 48.4217 0.665934C46.2874 0.719037 44.0425 0.772432 41.8572 0.806075C41.6235 0.809673 41.3435 0.814635 41.0221 0.820357C39.1668 0.853389 35.9096 0.911376 31.932 0.874192C31.0584 0.866023 30.1506 0.848717 29.1146 0.828902C28.7991 0.822867 28.4715 0.816526 28.1294 0.810225C26.6527 0.783024 24.8585 0.754126 22.4696 0.736737C20.498 0.722386 18.0952 0.715504 15.6001 0.708294C14.3711 0.704742 13.1197 0.701051 11.8864 0.696452C8.16105 0.682562 4.74661 0.660529 1.33866 0.638467C1.33797 0.638467 1.33727 0.638467 1.33658 0.638467C0.933968 0.635861 0.618599 0.577658 0.632745 0.508581C0.647038 0.43954 0.984874 0.38563 1.3873 0.388216C4.79726 0.410291 8.20126 0.432357 11.9142 0.446201C13.1287 0.45073 14.3703 0.45438 15.5945 0.45792C18.1018 0.465171 20.538 0.472123 22.5279 0.486608C24.9576 0.504294 26.7846 0.533741 28.2816 0.561317C28.6421 0.567958 28.9811 0.574452 29.3029 0.580604C30.3274 0.600189 31.1791 0.616559 32.0078 0.624307C35.8591 0.66031 38.9931 0.604628 40.8553 0.571571C41.1856 0.565708 41.476 0.560606 41.7231 0.5568C43.8656 0.523818 46.0761 0.4713 48.2084 0.418246C48.5544 0.409639 48.8986 0.401054 49.2402 0.392489C49.2409 0.392448 49.2416 0.392407 49.2423 0.392367C50.9973 0.348359 52.6838 0.306069 54.1927 0.277373C55.7243 0.248246 57.06 0.200271 58.3094 0.155421C58.9798 0.131356 59.6255 0.108275 60.2632 0.0893795C62.4584 0.0243347 64.3938 0.00319457 69.299 2.15769e-05ZM2.80608 1.64143C3.77502 1.67279 4.56449 1.67941 5.15241 1.67732C4.6531 1.67019 4.155 1.66271 3.65651 1.65498C3.37279 1.65057 3.0894 1.64606 2.80608 1.64143ZM52.125 1.02434C51.968 1.02842 51.8098 1.03253 51.6511 1.03667C52.0893 1.03471 52.5275 1.03289 52.965 1.03106C53.5022 1.02881 54.0393 1.02669 54.5762 1.02459C53.7225 1.02377 52.8953 1.02353 52.125 1.02434ZM69.2497 0.57267C66.5226 0.573654 64.4847 0.646669 62.647 0.712566C62.1178 0.731543 61.6046 0.749896 61.0969 0.76579C60.8864 0.772382 60.676 0.779667 60.464 0.787397C61.699 0.79132 62.8342 0.795443 63.7636 0.798872C66.5367 0.809105 68.115 0.830432 69.5019 0.849167C69.9032 0.854587 70.2888 0.859769 70.6824 0.864426C71.008 0.856024 71.3461 0.847692 71.6877 0.840377C72.1661 0.830039 72.6832 0.82012 73.1753 0.81169C73.6693 0.803206 74.1712 0.795619 74.6643 0.789228C75.1613 0.782781 75.6539 0.777405 76.1442 0.772748C76.6055 0.768349 77.0653 0.764632 77.5102 0.761029C77.5356 0.760826 77.5611 0.760623 77.5866 0.760419C78.0568 0.756585 78.5142 0.752915 78.9345 0.747845C79.3623 0.742636 79.718 0.736496 80.0337 0.727215C80.4279 0.715657 80.8323 0.704562 81.2322 0.694255C81.6325 0.683927 82.0312 0.674316 82.4286 0.665323C82.827 0.656314 83.2213 0.647898 83.6167 0.639932C83.7446 0.637356 83.8784 0.634707 84.0051 0.632242C84.0636 0.631105 84.122 0.62994 84.1802 0.628824C83.4067 0.627961 82.6035 0.626615 81.7734 0.624551C80.5743 0.621568 79.294 0.613388 77.8819 0.604409C75.4728 0.58909 72.6796 0.571432 69.2497 0.57267ZM95.9056 0.606484C95.5694 0.607135 95.0769 0.60909 94.4417 0.611611C94.2915 0.612207 94.1331 0.612915 93.9672 0.613564C93.9711 0.613625 93.9751 0.613626 93.979 0.613686C94.3904 0.620065 94.7702 0.625626 95.1803 0.630777C95.9111 0.639914 96.6212 0.647747 97.3383 0.654459C98.0583 0.661183 98.7762 0.666691 99.495 0.671061C100.215 0.675435 100.937 0.678575 101.652 0.680461C102.375 0.682337 103.087 0.683065 103.806 0.68217C104.035 0.681887 104.265 0.681436 104.495 0.680827C103.982 0.674526 103.449 0.66933 102.887 0.663859C102.438 0.659489 101.969 0.654915 101.477 0.649454C101.288 0.647364 101.06 0.644161 100.794 0.64042C99.7384 0.625595 98.0829 0.602271 95.9056 0.606484ZM110.231 0.611855C110.398 0.610196 110.564 0.608698 110.728 0.607461C111.195 0.603943 111.65 0.601932 112.096 0.60038C112.409 0.5993 112.719 0.598525 113.024 0.597695C113.153 0.597344 113.282 0.59696 113.409 0.596596C113.622 0.595989 113.834 0.595263 114.045 0.594521C112.569 0.586981 111.127 0.5812 109.624 0.579384C109.604 0.57936 109.584 0.579406 109.564 0.579384C109.792 0.590435 110.014 0.601264 110.231 0.611855Z" fill="#B8B8B8"/>
</svg>

<svg xmlns="http://www.w3.org/2000/svg" width="183" height="2" fill="none" viewBox="0 0 183 2"><path fill="#b8b8b8" d="M69.299 0c1.101 0 2.134.016 3.438.038h.002l.577.01c1.597.025 3.673.056 6.803.073 3.459.02 6.204.09 7.881.156.313.013.637.02 1.453.026l2.304.013 1.96.01c2.505.014 6.433.01 10.052.006 2.196-.002 4.279-.005 5.862-.003 2.314.003 4.547.015 6.974.03 2.223.012 4.609.025 7.371.033 2.118.006 4.176.057 6.268.113l.801.022c1.846.05 3.733.103 5.773.132 3.637.053 6.54.031 9.753.007 1.257-.01 2.562-.02 3.976-.025 2.238-.01 5.455-.007 8.685-.005h.829c2.957.003 5.859.006 7.988 0 3.383-.008 4.656-.028 5.717-.045.399-.006.769-.012 1.209-.017 1.586-.017 3.981-.013 6.408-.01h.028c.403 0 .728.057.726.126s-.33.125-.733.124c-1.286-.002-2.54-.003-3.664-.002-.058.06-.36.104-.723.104-.907-.001-3.687.043-8.038.117.298.01.548.02.766.03l.623.031c.352.018.587.03 1.003.04.964.01 2.48.011 4.075.013.402 0 .727.057.726.126-.002.07-.331.125-.733.124h-.024a536 536 0 0 1-4.151-.014 94 94 0 0 1-1.032-.019l-.063-.003h-.002c-.015 0-.095-.006-.179-.016l-.097-.014-.034-.001-.484-.024c-.668-.03-1.727-.07-3.931-.11-2.028-.038-5.455-.055-9.732-.055a718 718 0 0 0 3.898.06l1.363.019.923.012h.002l1.734.023c.59.008 1.169.016 1.835.031l.438.017.163.008.021.001.166.008.155.006h.002a17 17 0 0 0 .571.016 56 56 0 0 0 .7.008l.243.002c.188.002.368.016.501.04.132.023.205.054.205.086-.001.033-.077.064-.21.087a3 3 0 0 1-.503.038h-.154l-.092.001-.251.002-.787-.001a34 34 0 0 1-.71-.014l-.197-.006h-.02l-.16-.005-.293-.007c-.553-.004-1.236-.004-1.888-.003h-.244l-1.282.003-.931.001a2101 2101 0 0 1-4.455 0q-1.117 0-2.242-.008a306 306 0 0 1-2.271-.02c-.55-.008-1.114-.022-1.636-.035l-.827-.022h-.002l-.706-.02a238 238 0 0 0-2.949-.058 211 211 0 0 0-2.961-.017 2056 2056 0 0 0-4.061.015q-.36 0-.719.003h-.003l-1.335.007a1803 1803 0 0 1-4.158.014c-.7 0-1.419 0-2.142-.004l-1.928-.013q-.252 0-.503-.003a275 275 0 0 0-4.617-.004q-1.15.008-2.322.023a738 738 0 0 0-4.718.073 354 354 0 0 1-2.699.038l-.534.006-.766.009a327 327 0 0 0-2.413.039c-.39.009-.712.018-1.098.032-.937.026-1.519.034-2.164.043l-.393.005a415 415 0 0 1-4.61.035 561 561 0 0 1-9.09-.047l-.361-.005a371 371 0 0 0-2.326-.022 114 114 0 0 0-2.921.028l-2.247.04-.367.008a534 534 0 0 0-3.28.077c-.62.017-1.211.025-1.73.03-.525.006-1.015.01-1.492.012l-.268.002-1.137.006a454 454 0 0 0-4.058.048c-.46.008-.926.018-1.437.03l-1.577.032A267 267 0 0 1 64.52 2h-1.6a1898 1898 0 0 1-4.987-.018l-4.964-.023q-.275 0-.548-.003l-1.928-.009h-.013l-4.206-.016h-1.717l-.798.003h-.078c-.308.002-.658.003-.984.002a1059 1059 0 0 0-5.134 0l-1.013.002-1.584.003a1086 1086 0 0 1-5.26-.006 745 745 0 0 1-2.633-.016 2351 2351 0 0 1-5.816-.054 5379 5379 0 0 1-7.544-.08l-.883.017c-2.09.04-3.6.07-5.592.09-.191.002-.346.007-.535.012l-.113.003c-.247.007-.53.014-.925.018-.787.009-1.993.007-3.551-.051-.394-.015-.644-.082-.56-.15.06-.047.27-.082.524-.094l-1.41-.024a3 3 0 0 1-.488-.044c-.125-.025-.189-.056-.178-.089s.096-.062.236-.084a3.4 3.4 0 0 1 .513-.033l1.493.004a1015 1015 0 0 0 4.472 0c.501 0 .993-.002 1.492-.003.3 0 .603 0 .9-.002h.327l.27-.001a5400 5400 0 0 0 8.7-.028l8.027-.034.867-.018c.83-.017 1.662-.04 2.48-.062-1.457.011-2.628.028-3.743.045l-.447.006c-1.51.022-2.97.041-4.935.037-5.585-.012-8.823-.02-10.841-.036-2.018-.017-2.885-.04-3.694-.088-1.143-.067-3.35-.105-4.458-.106-.403 0-.728-.057-.726-.126.002-.07.33-.125.733-.125 1.17.002 3.558.04 4.919.12.606.036 1.303.059 3.29.075 1.987.015 5.195.024 10.791.036 1.893.004 3.298-.014 4.794-.036l.443-.007h.003c1.373-.02 2.869-.042 4.886-.052 4.648-.022 10.9-.066 12.385-.09l.87-.017a359 359 0 0 1 5.618-.066c.678-.004 1.473-.006 2.34-.007 1.3-.034 2.564-.065 3.663-.084.948-.016 1.823-.046 2.67-.078l.734-.029A217 217 0 0 1 60.831.52l1.45-.05c1.851-.067 4.07-.147 6.962-.148 3.065 0 5.69.014 7.953.028a593 593 0 0 1-4.595-.063A189 189 0 0 0 69.308.25c-4.89.003-6.723.025-8.793.086-.544.016-1.145.038-1.793.06-1.294.047-2.774.1-4.365.13-1.48.028-3.138.07-4.893.114h-.002l-1.04.026a700 700 0 0 1-7.4.154c-1.855.033-5.112.091-9.09.054C31.058.866 30.151.85 29.115.83l-.986-.02A483 483 0 0 0 22.47.737C20.499.722 18.096.716 15.6.708A3738 3738 0 0 1 1.34.638h-.002C.934.636.619.578.633.508.647.44.985.387 1.387.389c3.41.022 6.814.044 10.527.058 1.215.005 2.456.008 3.68.012 2.508.007 4.944.014 6.934.029 2.43.017 4.257.047 5.754.074l1.02.02c1.025.02 1.877.036 2.706.043 3.851.036 6.985-.02 8.847-.052l.868-.015A692 692 0 0 0 49.24.392h.002c1.755-.044 3.442-.086 4.95-.115C55.725.248 57.06.2 58.31.155c.67-.024 1.317-.047 1.954-.066C62.458.024 64.393.003 69.3 0M2.806 1.641c.969.032 1.758.038 2.346.036zm49.319-.617-.474.013 1.314-.006 1.611-.006zM69.25.573c-2.727 0-4.765.074-6.603.14a342 342 0 0 1-2.183.074l3.3.012c2.773.01 4.351.031 5.738.05l1.18.015a229 229 0 0 1 2.493-.052 356 356 0 0 1 2.97-.04l1.365-.01h.077l1.347-.013c.428-.005.784-.012 1.1-.02a341 341 0 0 1 3.971-.096q.088 0 .175-.003L81.773.625c-1.199-.003-2.479-.012-3.891-.02C75.472.588 72.68.57 69.25.572m26.656.033-1.464.006-.475.002h.012a398 398 0 0 0 3.36.04 661 661 0 0 0 7.156.027l-1.608-.017-2.093-.024C99.738.626 98.083.602 95.906.606m14.325.006A208 208 0 0 1 112.096.6l.928-.002.385-.001.636-.002c-1.476-.008-2.918-.014-4.421-.016h-.06z"/></svg>
